Papirus-Dark/24x24/actions/transform-scale-horizontal.svg

<?xml version="1.0" encoding="UTF-8" standalone="no"?>
<svg xmlns:osb="http://www.openswatchbook.org/uri/2009/osb" xmlns:dc="http://purl.org/dc/elements/1.1/" xmlns:cc="http://creativecommons.org/ns#" xmlns:rdf="http://www.w3.org/1999/02/22-rdf-syntax-ns#" xmlns:svg="http://www.w3.org/2000/svg" xmlns="http://www.w3.org/2000/svg" width="24" height="24" viewBox="0 0 24 24" id="svg6394" version="1.1">
    <defs id="defs6396">
        <linearGradient id="linearGradient19282" osb:paint="solid" gradientTransform="matrix(-0.40801424,2.7359005,1.4465395,0.18903615,2588.4859,828.26016)">
            <stop style="stop-color:#ffffff;stop-opacity:1;" offset="0" id="stop19284"/>
        </linearGradient>
        <linearGradient id="linearGradient19282-3" osb:paint="solid" gradientTransform="matrix(-2.7359006,0.40801425,-0.18903616,-1.4465395,-804.26018,-2564.486)">
            <stop style="stop-color:#ffffff;stop-opacity:1;" offset="0" id="stop19284-6"/>
        </linearGradient>
        <linearGradient gradientTransform="matrix(-2.73658,0.4081035,-0.1890831,-1.446856,-1254.4599,-3933.7766)" osb:paint="solid" id="linearGradient19282-36">
            <stop id="stop19284-7" offset="0" style="stop-color:#666666;stop-opacity:1;"/>
        </linearGradient>
    </defs>
    <metadata id="metadata6399">
        <rdf:RDF>
            <cc:Work rdf:about="">
                <dc:format>
                    image/svg+xml
                </dc:format>
                <dc:type rdf:resource="http://purl.org/dc/dcmitype/StillImage"/>
                <dc:title/>
            </cc:Work>
        </rdf:RDF>
    </metadata>
    <rect style="color:#000000;fill:#ffffff;fill-rule:evenodd;stroke:none;stroke-width:0.99999923;stroke-linecap:round;stroke-linejoin:round;stroke-miterlimit:0;fill-opacity:1;opacity:0.3" id="rect6287" width="22" height="16" x="1" y="4"/>
    <path id="rect6285" d="M 0.5078125 3.0078125 A 0.50005 0.50005 0 0 0 0.0078125 3.5078125 L 0.0078125 20.492188 A 0.50005 0.50005 0 0 0 0.5078125 20.992188 L 7.5117188 20.992188 L 16.486328 20.992188 L 23.492188 20.992188 A 0.50005 0.50005 0 0 0 23.992188 20.492188 L 23.992188 3.5078125 A 0.50005 0.50005 0 0 0 23.492188 3.0078125 L 16.486328 3.0078125 L 7.5117188 3.0078125 L 0.5078125 3.0078125 z M 1.0078125 4.0078125 L 7.0117188 4.0078125 L 7.0117188 15.080078 L 3.9609375 15.080078 L 3.9609375 13.080078 L 1.0078125 15.541016 L 1.0078125 4.0078125 z M 8.0117188 4.0078125 L 15.986328 4.0078125 L 15.986328 15.080078 L 8.0117188 15.080078 L 8.0117188 4.0078125 z M 16.986328 4.0078125 L 22.992188 4.0078125 L 22.992188 15.541016 L 20.039062 13.080078 L 20.039062 15.080078 L 16.986328 15.080078 L 16.986328 4.0078125 z M 1.0078125 15.619141 L 3.9609375 18.080078 L 3.9609375 16.080078 L 7.0117188 16.080078 L 7.0117188 19.992188 L 1.0078125 19.992188 L 1.0078125 15.619141 z M 22.992188 15.619141 L 22.992188 19.992188 L 16.986328 19.992188 L 16.986328 16.080078 L 20.039062 16.080078 L 20.039062 18.080078 L 22.992188 15.619141 z M 8.0117188 16.080078 L 15.986328 16.080078 L 15.986328 19.992188 L 8.0117188 19.992188 L 8.0117188 16.080078 z " style="color:#000000;font-style:normal;font-variant:normal;font-weight:normal;font-stretch:normal;font-size:medium;line-height:normal;font-family:sans-serif;text-indent:0;text-align:start;text-decoration:none;text-decoration-line:none;text-decoration-style:solid;text-decoration-color:#000000;letter-spacing:normal;word-spacing:normal;text-transform:none;direction:ltr;block-progression:tb;writing-mode:lr-tb;baseline-shift:baseline;text-anchor:start;white-space:normal;clip-rule:nonzero;display:inline;overflow:visible;visibility:visible;opacity:0.72;isolation:auto;mix-blend-mode:normal;color-interpolation:sRGB;color-interpolation-filters:linearRGB;solid-color:#000000;solid-opacity:1;fill:#ffffff;fill-opacity:1;fill-rule:nonzero;stroke:none;stroke-width:1;stroke-linecap:butt;stroke-linejoin:round;stroke-miterlimit:0;stroke-dasharray:none;stroke-dashoffset:0;stroke-opacity:1;color-rendering:auto;image-rendering:auto;shape-rendering:auto;text-rendering:auto;enable-background:accumulate"/>
</svg>

<?xml version="1.0" encoding="UTF-8" standalone="no"?>
<svg id="svg6394" xmlns:rdf="http://www.w3.org/1999/02/22-rdf-syntax-ns#" xmlns="http://www.w3.org/2000/svg" xmlns:osb="http://www.openswatchbook.org/uri/2009/osb" height="24" width="24" version="1.1" xmlns:cc="http://creativecommons.org/ns#" viewBox="0 0 24 24" xmlns:dc="http://purl.org/dc/elements/1.1/">
 <metadata id="metadata6399">
  <rdf:RDF>
   <cc:Work rdf:about="">
    <dc:format>image/svg+xml</dc:format>
    <dc:type rdf:resource="http://purl.org/dc/dcmitype/StillImage"/>
    <dc:title/>
   </cc:Work>
  </rdf:RDF>
 </metadata>
 <rect id="rect6287" opacity="0.3" fill="#d3dae3" style="fill:#d3dae3" fill-rule="evenodd" height="16" width="22" y="4" x="1"/>
 <path id="rect6285" opacity="1" fill="#d3dae3" style="fill-rendering:auto;text-decoration-fill:#d3dae3;fill:#d3dae3;isolation:auto;mix-blend-mode:normal;shape-rendering:auto;solid-fill:#d3dae3;block-progression:tb;text-decoration-line:none;text-decoration-style:solid;image-rendering:auto;white-space:normal;text-indent:0;text-transform:none" d="m0.50781 3.0078a0.50005 0.50005 0 0 0 -0.5 0.5l0.0000025 16.984a0.50005 0.50005 0 0 0 0.5 0.5h7.0039 8.9743 7.006a0.50005 0.50005 0 0 0 0.5 -0.5v-16.984a0.50005 0.50005 0 0 0 -0.5 -0.5002h-7.006-8.9743-7.0039zm0.49999 1h6.0039v11.072h-3.0508v-2l-2.9531 2.461v-11.533zm7.0039 0h7.9743v11.072h-7.9743v-11.072zm8.9743 0h6.006v11.533l-2.953-2.461v2h-3.053v-11.072zm-15.978 11.611l2.9531 2.461v-2h3.0508v3.912h-6.0039v-4.373zm21.984 0v4.373h-6.006v-3.912h3.053v2l2.953-2.461zm-14.98 0.461h7.9743v3.912h-7.9743v-3.912z"/>
</svg>
